X: 18
T: The Ballest Heavers
%R: reel
B: "Twenty Four Favourite Dances for the Year 1779", Thomas Straight, ed. p.9 #2
F: http://www.vwml.org/browse/browse-collections-dance-tune-books/browse-straights1779
Z: 2014 John Chambers <jc:trillian.mit.edu>
N: The rhythms don't match at the strains' boundaries; not fixed.
M: C
L: 1/8
K: Bb
|:\
defd dcBA | BcdB BAGF | GBAc Bdce | dfed d2c2 |
defd dcBA | BcdB BAGF | GBAc Bdfe | dcBA B2B2 :|
|: B2 |\
Aceg fdB_A | Gcec BAGF | GEDC B,A,B,C | DFED D2C2 |
EGFE DFBd | ecdB cAF2 | GABD EGce | dBFA | B2 :|
%%begintext align
%% Cast of two Couple up again .| Lead down the
%% Middle up again and Cast off, set Corners and
%% turn the Other Corners do the same :| Lead
%% thro' the Bottom Cast up Lead thro' the top
%% and Cast off :|.
%%endtext

%%sep 1 1 500
%%sep 1 1 500
